svg/fluentui-system-icons/ic_fluent_table_switch_24_filled.svg

<svg width="24" height="24" viewBox="0 0 24 24" fill="none" xmlns="http://www.w3.org/2000/svg">
<path d="M8.78033 1.21967C8.48744 0.926777 8.01256 0.926777 7.71967 1.21967C7.42678 1.51256 7.42678 1.98744 7.71967 2.28033L8.43934 3H6.25C4.45507 3 3 4.45507 3 6.25V8.43934L2.28033 7.71967C1.98744 7.42678 1.51256 7.42678 1.21967 7.71967C0.926777 8.01256 0.926777 8.48744 1.21967 8.78033L3.21967 10.7803C3.51256 11.0732 3.98744 11.0732 4.28033 10.7803L6.28033 8.78033C6.57322 8.48744 6.57322 8.01256 6.28033 7.71967C5.98744 7.42678 5.51256 7.42678 5.21967 7.71967L4.5 8.43934V6.25C4.5 5.2835 5.2835 4.5 6.25 4.5H8.43934L7.71967 5.21967C7.42678 5.51256 7.42678 5.98744 7.71967 6.28033C8.01256 6.57322 8.48744 6.57322 8.78033 6.28033L10.7803 4.28033C11.0732 3.98744 11.0732 3.51256 10.7803 3.21967L8.78033 1.21967ZM14.5 8H9.50232V6.97255L11.4874 4.98744C12.025 4.4499 12.1397 3.64968 11.8317 3H14.5V8ZM3 11.8317V14.5H8L8 9.5H6.97488L4.98744 11.4874C4.4499 12.025 3.64968 12.1397 3 11.8317ZM14.5 14.5V9.5H9.5V14.5L14.5 14.5ZM16 14.5V9.5L21 9.5V14.5H16ZM16 8L21 8V6.25C21 4.45507 19.5449 3 17.75 3H16V8ZM14.5 21V16L9.5 16V21H14.5ZM8 16H3V17.75C3 19.5449 4.45507 21 6.25 21H8V16ZM16 16H21V17.75C21 19.5449 19.5449 21 17.75 21H16V16Z" fill="#212121"/>
</svg>

<svg xmlns="http://www.w3.org/2000/svg" width="24" height="24"><path d="M8.78 1.22a.75.75 0 0 0-1.06 1.06l.72.72H6.25A3.25 3.25 0 0 0 3 6.25v2.19l-.72-.72a.75.75 0 0 0-1.06 1.06l2 2a.75.75 0 0 0 1.06 0l2-2a.75.75 0 0 0-1.06-1.06l-.72.72V6.25c0-.966.784-1.75 1.75-1.75h2.19l-.72.72a.75.75 0 0 0 1.06 1.06l2-2a.75.75 0 0 0 0-1.06l-2-2ZM14.5 8H9.502V6.973l1.985-1.986A1.75 1.75 0 0 0 11.832 3H14.5v5ZM3 11.832V14.5h5v-5H6.975l-1.988 1.987A1.75 1.75 0 0 1 3 11.832ZM14.5 14.5v-5h-5v5h5Zm1.5 0v-5h5v5h-5ZM16 8h5V6.25A3.25 3.25 0 0 0 17.75 3H16v5Zm-1.5 13v-5h-5v5h5ZM8 16H3v1.75A3.25 3.25 0 0 0 6.25 21H8v-5Zm8 0h5v1.75A3.25 3.25 0 0 1 17.75 21H16v-5Z"/></svg>
